icons/baby-carriage.svg

<svg xmlns="http://www.w3.org/2000/svg" viewBox="0 0 24 24" fill="currentColor">
  <path d="M9 17.75c-.69036 0-1.25.5596-1.25 1.25s.55964 1.25 1.25 1.25 1.25-.5596 1.25-1.25-.55964-1.25-1.25-1.25ZM6.25 19c0-1.5188 1.23122-2.75 2.75-2.75 1.5188 0 2.75 1.2312 2.75 2.75S10.5188 21.75 9 21.75c-1.51878 0-2.75-1.2312-2.75-2.75Zm8.5 0c0-.6904.5596-1.25 1.25-1.25s1.25.5596 1.25 1.25-.5596 1.25-1.25 1.25-1.25-.5596-1.25-1.25ZM16 16.25c-1.5188 0-2.75 1.2312-2.75 2.75s1.2312 2.75 2.75 2.75 2.75-1.2312 2.75-2.75-1.2312-2.75-2.75-2.75Z"/>
</svg>

<svg width="24" height="24" viewBox="0 0 24 24" fill="none" xmlns="http://www.w3.org/2000/svg">
<path fill-rule="evenodd" clip-rule="evenodd" d="M9 17.75C8.30964 17.75 7.75 18.3096 7.75 19C7.75 19.6904 8.30964 20.25 9 20.25C9.69036 20.25 10.25 19.6904 10.25 19C10.25 18.3096 9.69036 17.75 9 17.75ZM6.25 19C6.25 17.4812 7.48122 16.25 9 16.25C10.5188 16.25 11.75 17.4812 11.75 19C11.75 20.5188 10.5188 21.75 9 21.75C7.48122 21.75 6.25 20.5188 6.25 19ZM14.75 19C14.75 18.3096 15.3096 17.75 16 17.75C16.6904 17.75 17.25 18.3096 17.25 19C17.25 19.6904 16.6904 20.25 16 20.25C15.3096 20.25 14.75 19.6904 14.75 19ZM16 16.25C14.4812 16.25 13.25 17.4812 13.25 19C13.25 20.5188 14.4812 21.75 16 21.75C17.5188 21.75 18.75 20.5188 18.75 19C18.75 17.4812 17.5188 16.25 16 16.25Z" fill="black"/>
</svg>
